icons/1_Primary/RaiDrive.svg

<svg xmlns="http://www.w3.org/2000/svg" width="1024" height="1024" fill="none">
   <g clip-path="url(#a)">
      <path fill="#9ABEFF" d="M512 1024c282.77 0 512-229.23 512-512S794.77 0 512 0 0 229.23 0 512s229.23 512 512 512Z"/>
      <path fill="#fff" d="M294.27 294.18H511v435.64H294.27V294.18Zm226.76 0v209.47h208.7V294.18h-208.7Zm0 223.2v212.44h208.7V513.65H521l.03 3.73Z"/>
   </g>
   <defs>
      <clipPath id="a">
         <path fill="#fff" d="M0 0h1024v1024H0z"/>
      </clipPath>
   </defs>
</svg>

<svg width="1024" height="1024" viewBox="0 0 1024 1024" fill="none" xmlns="http://www.w3.org/2000/svg">
<g clip-path="url(#clip0_2_3279)">
<path d="M512 1024C794.77 1024 1024 794.77 1024 512C1024 229.23 794.77 0 512 0C229.23 0 0 229.23 0 512C0 794.77 229.23 1024 512 1024Z" fill="#9ABEFF"/>
<path d="M294.27 294.18H511V729.82H294.27V294.18ZM521.03 294.18V503.65H729.73V294.18H521.03ZM521.03 517.38V729.82H729.73V513.65H521L521.03 517.38Z" fill="white"/>
</g>
<defs>
<clipPath id="clip0_2_3279">
<rect width="1024" height="1024" fill="white"/>
</clipPath>
</defs>
</svg>
